X:1
T: The Countess of Cassilis
C:Nathaniel Gow
R:Strathspey
Q: 128
K:A
M:4/4
L:1/16
|:E2|A3A A3A A3B c3B|A3B AFEC B,2B2 B2cB|A3A A3A A3B c3B|A3B AFEC A,2A2 A2E2|
A3A A3A A3B c3B|A3B AFEC B,2B2 B2cB|A3A A3A A3B c3B|A3B AFEC A,2A2 A2cd|
e3e dcBA f3g bagf|e3c dcBA G2B2 B2cd|e3e dcBA f3g bagf|e3E FGAB c2A2 A2cd|
e2fe dcBA f3g bagf|e2ae dcBA G2B2 B2cB|A3c F3A E3F EDCB,|A,2A2 cBAG A2A,2 A,2:|
